X:1817
T:Orions Bälte av Hasse Jonsson
O:Västerbotten
Z:Anton Teljebäck
M:3/4
L:1/4
K:Dm

| d2 c | A>d e | f>e f | d3 | f>d f | e>d c | c2 d | A3 |
| d2 c | A>d e | f>e f | d3 | f>d f | e>d c |(d3 | d3) ||
|: a>f a | g>f e | f>d f | e>d c | d>e f | e>d c | (d3 | d3) :|
(:musicend:)
(:music:)
